X:403
T:The 29th of May
M:4/4
L:1/4
K:D
P:A
"D"af "G"gf|"Em"e/2d/2c/2B/2 "A"Af|"G"gB "A7"cB/2c/2|"D"dA "A7"FE/2D/2:|
P:B
"D"FA -AG/2F/2|"G"GB -"Em"BB|"A7"c/2d/2e c/2d/2e|"A7"cB/2c/2 Ad/2e/2|
"F#m"fe/2f/2 "D7"de/2f/2|"G"gf/2g/2 "Em"ef/2g/2|"A"aB "A7"cB/2c/2|\
"D"dA "A7"FE/2D/2||
